X: 282
P: Longways for as many as will
M: 6/4
L: 1/4
K: D
def efd | c2A d2F | GAB ABG | F3 E2e |\
efg gfe | f3 e2B | efg gfe | f3 e2e |\
"^:S:"fga A2A | Bcd F2F | GAB A2f | e3 d2 |]

